app/images/svg/vk-social-network-logo 1.svg

<svg width="32" height="32" viewBox="0 0 32 32" fill="none" xmlns="http://www.w3.org/2000/svg">
<path d="M13.4063 6.91256C12.8 6.95631 12.025 7.07506 11.7188 7.16881C11.1875 7.33131 10.5313 7.91881 10.65 8.11881C10.675 8.15006 10.7938 8.20006 10.925 8.22506C11.5 8.33131 11.9813 8.65631 12.2 9.08131C12.5688 9.80631 12.7375 12.0813 12.5375 13.6876C12.4063 14.7501 12.35 14.9938 12.15 15.3813C11.6313 16.4188 10.425 15.5813 9.10001 13.2563C8.62501 12.4313 7.30001 9.78131 7.00626 9.07506C6.64376 8.21881 6.53126 8.06256 6.12501 7.85631L5.78126 7.68131L3.18751 7.70006C0.843761 7.71881 0.575011 7.73131 0.393761 7.83131C0.100011 7.98756 -0.0249892 8.20631 0.0187609 8.48756C0.0562609 8.78756 1.03751 10.9751 1.76251 12.3751C3.17501 15.1001 4.37501 17.0813 5.65001 18.8126C7.53126 21.3563 8.36251 22.1813 10.2813 23.4063C11.175 23.9813 11.825 24.3001 12.625 24.5688C13.725 24.9376 14.2 25.0063 15.8438 25.0438C17.475 25.0813 17.9438 25.0313 18.2938 24.7938C18.575 24.6001 18.6625 24.3313 18.7188 23.5001C18.7688 22.6751 18.9313 21.9688 19.15 21.5938C19.35 21.2626 19.7688 20.8751 19.9563 20.8688C20.5875 20.8376 20.9438 21.1001 22.2688 22.5876C23.5125 23.9813 23.9688 24.3876 24.6563 24.7188C24.9688 24.8626 25.3438 25.0126 25.5 25.0501C25.875 25.1376 30.9375 25.0376 31.2625 24.9438C31.5875 24.8438 31.9375 24.5001 31.9438 24.2751C31.9688 23.6563 31.875 23.3751 31.4438 22.7188C30.8688 21.8563 30.3813 21.3063 28.7125 19.6563C26.9375 17.9001 26.8188 17.7376 26.8125 17.1501C26.8125 16.6563 27.0438 16.2813 28.6 14.2188C30.7938 11.3126 31.6688 9.90631 31.9125 8.91881C32.0563 8.33756 31.975 8.05631 31.6063 7.85631L31.3438 7.71881L28.1875 7.73756C25.9563 7.75631 24.9875 7.78131 24.875 7.83131C24.6625 7.93131 24.4438 8.30006 24.1625 9.00006C23.4125 10.8688 21.8688 13.5626 20.85 14.7751C20.4438 15.2563 19.8125 15.7501 19.6063 15.7501C19.3125 15.7501 19.0688 15.5626 18.8875 15.1876L18.7188 14.8438L18.7375 11.6001C18.7563 8.10631 18.7438 8.00631 18.425 7.54381C18.1063 7.09381 17.3313 6.93756 15.25 6.90631C14.4063 6.90006 13.5813 6.90006 13.4063 6.91256Z" fill="white"/>
</svg>

<svg width="32" height="32" viewBox="0 0 32 32" fill="none" xmlns="http://www.w3.org/2000/svg"><path d="M13.406 6.913c-.606.043-1.381.162-1.687.256-.531.162-1.188.75-1.069.95.025.031.144.081.275.106.575.106 1.056.431 1.275.856.369.725.538 3 .338 4.607-.132 1.062-.188 1.306-.388 1.693-.519 1.038-1.725.2-3.05-2.125-.475-.825-1.8-3.475-2.094-4.18-.362-.857-.475-1.013-.881-1.22l-.344-.175-2.593.02c-2.344.018-2.613.03-2.794.13-.294.157-.419.375-.375.657.037.3 1.019 2.487 1.744 3.887 1.412 2.725 2.612 4.706 3.887 6.438 1.881 2.543 2.713 3.368 4.631 4.593.894.575 1.544.894 2.344 1.163 1.1.369 1.575.437 3.219.475 1.631.037 2.1-.013 2.45-.25.281-.194.369-.463.425-1.294.05-.825.212-1.531.431-1.906.2-.331.619-.719.806-.725.631-.031.988.231 2.313 1.719 1.244 1.393 1.7 1.8 2.387 2.13.313.145.688.295.844.332.375.088 5.438-.012 5.762-.106.325-.1.675-.444.682-.669.025-.619-.069-.9-.5-1.556-.575-.863-1.063-1.413-2.732-3.063-1.774-1.756-1.893-1.918-1.9-2.506 0-.494.232-.869 1.788-2.931 2.194-2.906 3.069-4.313 3.313-5.3.143-.581.062-.863-.307-1.063l-.262-.137-3.157.019c-2.23.018-3.2.043-3.312.093-.212.1-.431.47-.712 1.17-.75 1.868-2.294 4.562-3.313 5.774-.406.481-1.038.975-1.244.975-.294 0-.537-.187-.719-.562l-.168-.344.018-3.244c.02-3.494.007-3.594-.312-4.056-.319-.45-1.094-.606-3.175-.638a49.93 49.93 0 00-1.844.007z" fill="#fff"/></svg>
